X:271
T:Abbot’s Hornpipe TS.271
M:C|
L:1/8
Q:1/2=90
S:Thomas Sands’ MS,1810,Lincolnshire
R:.hornpipe
N:F in bars 2 and 6 very feint in MS
O:England;Lincolnshire
Z:vmp.Ruairidh Greig, 2011
K:D
D2FD CEA,C|DA,FD AFdA|fdaf d’afd|abge dcBA|
D2FD CEA,C|DA,FD AFdA|ea^ge ee’c’a|eagba2a2:|
|:eaa2 ebb2|ec’c’2 ed’c’a|babf gfgf|efge dcBA|
Dddc DBBA|DGGE DCB,A,|Dafd Ebge|Adce d2d2:|]
